X: 15464
T: Glenburnie Rant
R: reel
M: 4/4
K: Eminor
|:E2EF E2EF|DEFG AFDF|E2EF E2B2|1 efe^d e2e2:|2 efe^d e3B||
|:e2ef g2fe|defg afdf|1 e2ef g2fe|efe^d e3B:|2 g2bg f2af|efe^d e2e2||

